marketing_automation_crm/static/img/phone.svg

<svg xmlns="http://www.w3.org/2000/svg" xmlns:xlink="http://www.w3.org/1999/xlink" width="75" height="75" viewBox="0 0 512 512" version="1.1">
<g id="surface1">
<path style=" stroke:#7C6576;fill-rule:nonzero;fill:#7C6576;fill-opacity:1;" d="M 164.898438 24.601562 C 157.199219 6 136.898438 -3.898438 117.5 1.398438 L 29.5 25.398438 C 12.101562 30.199219 0 46 0 64 C 0 311.398438 200.601562 512 448 512 C 466 512 481.800781 499.898438 486.601562 482.5 L 510.601562 394.5 C 515.898438 375.101562 506 354.800781 487.398438 347.101562 L 391.398438 307.101562 C 375.101562 300.300781 356.199219 305 345.101562 318.699219 L 304.699219 368 C 234.300781 334.699219 177.300781 277.699219 144 207.300781 L 193.300781 167 C 207 155.800781 211.699219 137 204.898438 120.699219 L 164.898438 24.699219 Z M 164.898438 24.601562 "></path>
</g>
</svg>

<svg xmlns="http://www.w3.org/2000/svg" width="75" height="75" viewBox="0 0 512 512">
    <!--!Font Awesome Free 6.5.2 by @fontawesome - https://fontawesome.com License - https://fontawesome.com/license/free Copyright 2024 Fonticons, Inc.-->
    <path style=" stroke:#7C6576;fill-rule:nonzero;fill:#7C6576;fill-opacity:1;" d="M164.9 24.6c-7.7-18.6-28-28.5-47.4-23.2l-88 24C12.1 30.2 0 46 0 64C0 311.4 200.6 512 448 512c18 0 33.8-12.1 38.6-29.5l24-88c5.3-19.4-4.6-39.7-23.2-47.4l-96-40c-16.3-6.8-35.2-2.1-46.3 11.6L304.7 368C234.3 334.7 177.3 277.7 144 207.3L193.3 167c13.7-11.2 18.4-30 11.6-46.3l-40-96z"/>
</svg>
